X: 14747
T: Gan Ainm
R: polka
M: 2/4
K: Fmajor
|:C>D FG|Ac cA/c/|dc AG|FD DF/D/|
C>D FG|Ac cA/c/|dc AG|1 F2 F2:|2 FG AB||
|:cf f>d|ce e>c|cf fc|(3d/e/d/ c AB|
cf fe/d/|ce ed/e/|fd cA|1 FG AB:|2 F2 F2||

